images/icons/klarna_icon.svg

<svg width="40" height="28" viewBox="0 0 34 24" fill="none" xmlns="http://www.w3.org/2000/svg">
<rect width="40" height="28" rx="3" fill="#FEB4C7"/>
<path fill-rule="evenodd" clip-rule="evenodd" d="M5.26919 15.3796H3.88571V9H5.26919V15.3796ZM8.72315 9H7.36968C7.36968 10.174 6.85965 11.2516 5.9704 11.9565L5.43417 12.3815L7.51186 15.3799H9.22012L7.30837 12.6209C8.21457 11.666 8.72315 10.3811 8.72315 9ZM10.9298 15.3779H9.62327V9.00122H10.9298V15.3779ZM14.8773 10.9669V11.2491C14.5247 10.9945 14.0992 10.845 13.6403 10.845C12.4256 10.845 11.441 11.887 11.441 13.1725C11.441 14.4579 12.4256 15.5 13.6403 15.5C14.0992 15.5 14.5247 15.3504 14.8773 15.096V15.3779H16.1252V10.9669H14.8773ZM14.8735 13.1725C14.8735 13.7993 14.3672 14.3074 13.7427 14.3074C13.1183 14.3074 12.612 13.7993 12.612 13.1725C12.612 12.5457 13.1183 12.0377 13.7427 12.0377C14.3672 12.0377 14.8735 12.5457 14.8735 13.1725ZM28.0423 11.2491V10.9669H29.2902V15.3779H28.0423V15.096C27.6898 15.3504 27.2643 15.5 26.8053 15.5C25.5906 15.5 24.606 14.4579 24.606 13.1725C24.606 11.887 25.5906 10.845 26.8053 10.845C27.2643 10.845 27.6898 10.9945 28.0423 11.2491ZM26.9077 14.3074C27.5322 14.3074 28.0385 13.7993 28.0385 13.1725C28.0385 12.5457 27.5322 12.0377 26.9077 12.0377C26.2832 12.0377 25.777 12.5457 25.777 13.1725C25.777 13.7993 26.2832 14.3074 26.9077 14.3074ZM29.8318 14.6421C29.8318 14.1844 30.1824 13.8134 30.6148 13.8134C31.0473 13.8134 31.398 14.1844 31.398 14.6421C31.398 15.0998 31.0473 15.4709 30.6148 15.4709C30.1824 15.4709 29.8318 15.0998 29.8318 14.6421ZM22.3885 10.8482C21.89 10.8482 21.4183 11.012 21.1028 11.4639V10.9671H19.8603V15.3779H21.1181V13.0599C21.1181 12.3891 21.5431 12.0607 22.0549 12.0607C22.6033 12.0607 22.9186 12.4074 22.9186 13.0508V15.3779H24.165V12.5728C24.165 11.5463 23.3938 10.8482 22.3885 10.8482ZM18.0556 10.967V11.5415C18.3057 11.1969 18.7719 10.9672 19.2786 10.9672V12.2507L19.2717 12.2505L19.2638 12.2502C18.77 12.2502 18.0584 12.6237 18.0584 13.3185V15.3779H16.778V10.967H18.0556Z" fill="#17120F"/>
</svg>

<svg xmlns="http://www.w3.org/2000/svg" width="40" height="28" fill="none" viewBox="0 0 34 24"><rect width="40" height="28" fill="#feb4c7" rx="3"/><path fill="#17120f" fill-rule="evenodd" d="M5.269 15.38H3.886V9h1.383v6.38zM8.723 9H7.37c0 1.174-.51 2.252-1.399 2.957l-.536.425 2.078 2.998H9.22l-1.912-2.759c.906-.955 1.415-2.24 1.415-3.621zm2.207 6.378H9.623V9.001h1.307v6.377zm3.948-4.411v.282a2.102 2.102 0 0 0-1.237-.404c-1.215 0-2.199 1.042-2.199 2.327s.985 2.328 2.199 2.328c.459 0 .884-.15 1.237-.404v.282h1.248v-4.411h-1.248zm-.004 2.206c0 .627-.506 1.135-1.131 1.135s-1.131-.508-1.131-1.135.506-1.135 1.131-1.135 1.131.508 1.131 1.135zm13.169-1.923v-.282h1.248v4.411h-1.248v-.282a2.106 2.106 0 0 1-1.237.404c-1.215 0-2.199-1.042-2.199-2.328s.985-2.327 2.199-2.327a2.1 2.1 0 0 1 1.237.404zm-1.135 3.058c.625 0 1.131-.508 1.131-1.135s-.506-1.135-1.131-1.135-1.131.508-1.131 1.135.506 1.135 1.131 1.135zm2.924.335c0-.458.351-.829.783-.829s.783.371.783.829-.351.829-.783.829-.783-.371-.783-.829zm-7.443-3.794c-.498 0-.97.164-1.286.616v-.497H19.86v4.411h1.258V13.06c0-.671.425-.999.937-.999.548 0 .864.347.864.99v2.327h1.246v-2.805c0-1.027-.771-1.725-1.776-1.725zm-4.333.119v.574c.25-.345.716-.574 1.223-.574v1.284h-.015c-.494 0-1.205.373-1.205 1.068v2.059h-1.28v-4.411h1.278z"/></svg>
